Numix-GalliumOS/32/mimetypes/application-x-trash.svg

<?xml version="1.0" encoding="UTF-8" standalone="no"?>
<svg
   xmlns:dc="http://purl.org/dc/elements/1.1/"
   xmlns:cc="http://creativecommons.org/ns#"
   xmlns:rdf="http://www.w3.org/1999/02/22-rdf-syntax-ns#"
   xmlns:svg="http://www.w3.org/2000/svg"
   xmlns="http://www.w3.org/2000/svg"
   xmlns:sodipodi="http://sodipodi.sourceforge.net/DTD/sodipodi-0.dtd"
   xmlns:inkscape="http://www.inkscape.org/namespaces/inkscape"
   width="32"
   height="32"
   viewBox="0 0 32 32"
   id="svg2"
   version="1.1"
   inkscape:version="0.48.5 r10040"
   sodipodi:docname="application-x-trash.svg">
  <metadata
     id="metadata22">
    <rdf:RDF>
      <cc:Work
         rdf:about="">
        <dc:format>image/svg+xml</dc:format>
        <dc:type
           rdf:resource="http://purl.org/dc/dcmitype/StillImage" />
      </cc:Work>
    </rdf:RDF>
  </metadata>
  <defs
     id="defs20" />
  <sodipodi:namedview
     pagecolor="#ffffff"
     bordercolor="#666666"
     borderopacity="1"
     objecttolerance="10"
     gridtolerance="10"
     guidetolerance="10"
     inkscape:pageopacity="0"
     inkscape:pageshadow="2"
     inkscape:window-width="1280"
     inkscape:window-height="970"
     id="namedview18"
     showgrid="true"
     inkscape:zoom="11.313709"
     inkscape:cx="16.155017"
     inkscape:cy="15.927446"
     inkscape:window-x="0"
     inkscape:window-y="0"
     inkscape:window-maximized="1"
     inkscape:current-layer="svg2">
    <inkscape:grid
       type="xygrid"
       id="grid3010" />
  </sodipodi:namedview>
  <path
     style="fill:#dcdcdc;fill-opacity:1"
     d="M 5.335888,2.97e-4 C 4.648414,3.12e-4 4,0.6767879 4,1.3940312 L 4,30.606268 C 4,31.282757 4.687474,32 5.335888,32 l 21.327332,0 c 0.648414,0 1.335888,-0.717243 1.335888,-1.393732 L 28,8.9999997 l -9,-9 z"
     id="path4-1"
     inkscape:connector-curvature="0"
     sodipodi:nodetypes="ssssssccs" />
  <path
     style="fill:#000000;fill-opacity:0.19599998"
     d="M 21,8.9999997 28,16 28,8.9999997 z"
     id="path6-4"
     inkscape:connector-curvature="0"
     sodipodi:nodetypes="cccc" />
  <path
     style="fill:#ffffff;fill-opacity:0.39200003"
     d="m 19.000306,2.97e-4 8.991594,8.9997027 -7.613262,0 c -0.672951,0 -1.378332,-0.7134896 -1.378332,-1.3864402 z"
     id="path8-6"
     inkscape:connector-curvature="0"
     sodipodi:nodetypes="ccssc" />
  <g
     style="fill:#888888"
     id="g10"
     transform="matrix(1,0,0,1.0351477,-1e-8,-0.0385448)">
    <path
       d="m 15.425451,23.222333 0.0042,-3.429364 -3.125,0 0.542968,-0.917969 1,0 -1.449218,-2.441406 -3.167969,0 0.691406,0.386718 L 9,18.378906 l 2.476562,4.179688 0.238282,0.398437 0.168759,0.265302 z"
       id="path12"
       inkscape:connector-curvature="0"
       sodipodi:nodetypes="ccccccccccccc" />
    <path
       d="m 21.125,15.484375 -2.851562,1.605469 1.558593,2.632812 -1.085937,0 -0.5,-0.839844 -1.449219,2.441407 L 18.382812,24 l 0,-0.777344 1.84375,0 2.480469,-4.183594 0.234375,-0.394531 L 23,18.542969 z"
       id="path14"
       inkscape:connector-curvature="0" />
    <path
       d="M 11.585938,13.777344 14.4375,15.382812 16,12.746094 16.542969,13.664062 16,14.527922 l 2.932931,0 1.590507,-2.691984 -0.6875,0.386718 -0.925782,-1.558594 -5.542968,0 z"
       id="path16"
       inkscape:connector-curvature="0"
       sodipodi:nodetypes="ccccccccccc" />
  </g>
</svg>

<svg xmlns="http://www.w3.org/2000/svg" viewBox="0 0 32 32">
 <path d="m 5.336 0 c -0.687 0 -1.336 0.676 -1.336 1.394 l 0 29.21 c 0 0.676 0.687 1.394 1.336 1.394 l 21.327 0 c 0.648 0 1.336 -0.717 1.336 -1.394 l 0.001 -21.606 l -9 -9 z" style="fill:#dcdcdc;fill-opacity:1"/>
 <path d="m 21 9 7 7 0 -7 z" style="fill:#000;fill-opacity:0.196"/>
 <path d="m 19 0 8.992 9 -7.613 0 c -0.673 0 -1.378 -0.713 -1.378 -1.386 z" style="fill:#fff;fill-opacity:0.392"/>
 <g transform="matrix(1,0,0,1.0351477,-1e-8,-0.0385448)" style="fill:#888">
  <path d="m 15.425 23.22 0.004 -3.429 -3.125 0 0.543 -0.918 1 0 -1.449 -2.441 -3.168 0 0.691 0.387 l -0.922 1.559 l 2.477 4.18 0.238 0.398 0.169 0.265 z"/>
  <path d="m 21.13 15.484 -2.852 1.605 1.559 2.633 -1.086 0 -0.5 -0.84 -1.449 2.441 l 1.586 2.676 l 0 -0.777 1.844 0 2.48 -4.184 0.234 -0.395 l 0.059 -0.102 z"/>
  <path d="m 11.586 13.777 2.852 1.605 1.563 -2.637 0.543 0.918 -0.543 0.864 l 2.933 0 1.591 -2.692 -0.688 0.387 -0.926 -1.559 -5.543 0 z"/>
 </g>
</svg>
